X: 16164
T: Green Loch, The
R: waltz
M: 3/4
K: Dminor
L: 1/4
|:"Dm"D>EF|"Am"dc A/G/|"Dm"A/D/- D2|"G"dD2|"Dm"D>EF "Am"|dc A/c/|"G"d3- "Bb"d2 d/e/|
"Dm"f>d e/f/|"C"ed>c|"Dm"d/D/- D d/A/|"Am" cAG|"Dm"F>DD|"G"=BAG|"Bb"F3|"Am"FEC:|
|:"Dm"d>ef|"C"ed>c|"Dm"d/D/- D d/A/|"Am" cAG|"Dm"d>e f/d/|"C"edc|"G"d3- "Bb"d2 d/e/|
"Dm"f>d e/f/|"C"edc|"Dm"d/D/- D d/A/|"Am" cAG|"Dm"F>DD|"G"=BAG|"Bb"F3-|"Am"FEC:|

